X:17
T:Cathleen Hehir's
R:slide
D:De Danann I
Z:id:hn-slide-17
M:6/8
K:D
dcd e2d|c2E EFG|~B3 BAG|F2D DFA|
dcd e2d|c2E EFG|ABA GFE|1 D3 DFA:|2 D3 D2E||
|:DFA d2d|c2B G3|BcB BAG|B2A F3|
DFA ded|c2B G2F|EFG ABc|1 d3 d3:|2 d3 d3||
|:DFA d2e|f2d A3|~f3 fed|c2d ecA|
DFA d2e|f2d A2F|EFG ABc|1 d3 d3:|2 d3 dfg||
|:a2f f2d|Adf agf|g2e e2c|Ace gfg|
a2f f2d|Adf agf|gec ABc|1 d3 dfg:|2 d3 d2A||
<end>
<start>
